X:2880
T:Charlie Lennon's \#4
S:as recorded by Martin \& Chris Dowling
D:A Thousand Farewells, Cottage Music CM001, 1997.
N:Tune copyright Charlie Lennon. Transcribed by Alan Ng.
C:Charlie Lennon
Z:transcribed by Alan Ng agng@students.wisc.edu id:ng-reels-30 Jan. 21, 1999
R:reel
E:9
M:C|
K:D
F2AF dFAF|DFAF GBAG|F2AF d3F|G2AG EFGE|F2AF dFAF|\
DFAF GBAG|1FAdf edAB|cded cAGE:|2FAdf eA~A2|ABAB affe|:d2fd Adfd|\
eA~A2 affe|d2fd Adfd|Bdef gffe|d2fd Adfd|B2GB g3g|(3agf(3gfe fded\
|1cded cABc:|2cded cAGE|]**


